src/images/strong.svg

<svg width="32" height="32" viewBox="0 0 32 32" fill="none" xmlns="http://www.w3.org/2000/svg">
<g filter="url(#filter0_i_20020_4346)">
<path d="M7.96785 8.6875H6.32722L2.57753 19.875C0.843154 25.7812 3.97658 29.8438 8.79677 29.8438H21.6241C26.2078 29.7854 29.9057 26.0507 29.9057 21.4531C29.9057 16.8191 26.1491 13.0625 21.515 13.0625C17.8744 13.0625 14.7754 15.3811 13.614 18.6222C13.5801 18.7168 13.4911 18.7812 13.3906 18.7812V18.7812C13.3036 18.7812 13.2238 18.7329 13.1835 18.6558L7.96785 8.6875Z" fill="url(#paint0_radial_20020_4346)"/>
</g>
<path d="M7.96785 8.6875H6.32722L2.57753 19.875C0.843154 25.7812 3.97658 29.8438 8.79677 29.8438H21.6241C26.2078 29.7854 29.9057 26.0507 29.9057 21.4531C29.9057 16.8191 26.1491 13.0625 21.515 13.0625C17.8744 13.0625 14.7754 15.3811 13.614 18.6222C13.5801 18.7168 13.4911 18.7812 13.3906 18.7812V18.7812C13.3036 18.7812 13.2238 18.7329 13.1835 18.6558L7.96785 8.6875Z" fill="url(#paint1_linear_20020_4346)"/>
<path d="M7.96785 8.6875H6.32722L2.57753 19.875C0.843154 25.7812 3.97658 29.8438 8.79677 29.8438H21.6241C26.2078 29.7854 29.9057 26.0507 29.9057 21.4531C29.9057 16.8191 26.1491 13.0625 21.515 13.0625C17.8744 13.0625 14.7754 15.3811 13.614 18.6222C13.5801 18.7168 13.4911 18.7812 13.3906 18.7812V18.7812C13.3036 18.7812 13.2238 18.7329 13.1835 18.6558L7.96785 8.6875Z" fill="url(#paint2_radial_20020_4346)"/>
<path d="M7.96785 8.6875H6.32722L2.57753 19.875C0.843154 25.7812 3.97658 29.8438 8.79677 29.8438H21.6241C26.2078 29.7854 29.9057 26.0507 29.9057 21.4531C29.9057 16.8191 26.1491 13.0625 21.515 13.0625C17.8744 13.0625 14.7754 15.3811 13.614 18.6222C13.5801 18.7168 13.4911 18.7812 13.3906 18.7812V18.7812C13.3036 18.7812 13.2238 18.7329 13.1835 18.6558L7.96785 8.6875Z" fill="url(#paint3_radial_20020_4346)"/>
<path d="M7.96785 8.6875H6.32722L2.57753 19.875C0.843154 25.7812 3.97658 29.8438 8.79677 29.8438H21.6241C26.2078 29.7854 29.9057 26.0507 29.9057 21.4531C29.9057 16.8191 26.1491 13.0625 21.515 13.0625C17.8744 13.0625 14.7754 15.3811 13.614 18.6222C13.5801 18.7168 13.4911 18.7812 13.3906 18.7812V18.7812C13.3036 18.7812 13.2238 18.7329 13.1835 18.6558L7.96785 8.6875Z" fill="url(#paint4_radial_20020_4346)"/>
<path d="M7.96785 8.6875H6.32722L2.57753 19.875C0.843154 25.7812 3.97658 29.8438 8.79677 29.8438H21.6241C26.2078 29.7854 29.9057 26.0507 29.9057 21.4531C29.9057 16.8191 26.1491 13.0625 21.515 13.0625C17.8744 13.0625 14.7754 15.3811 13.614 18.6222C13.5801 18.7168 13.4911 18.7812 13.3906 18.7812V18.7812C13.3036 18.7812 13.2238 18.7329 13.1835 18.6558L7.96785 8.6875Z" fill="url(#paint5_radial_20020_4346)"/>
<path d="M19.9013 29.8438L13.4976 18.7553C13.5507 18.728 13.5929 18.6809 13.614 18.6222C14.7754 15.3811 17.8744 13.0625 21.515 13.0625C26.1491 13.0625 29.9057 16.8191 29.9057 21.4531C29.9057 26.0507 26.2078 29.7854 21.6241 29.8438H19.9013Z" fill="url(#paint6_radial_20020_4346)"/>
<path d="M7.3197 5.88278L6.29626 8.77731L6.79483 9.73964C7.14061 10.4262 7.84374 10.8593 8.61246 10.8593H13.5531C14.5694 10.8593 15.4845 10.2441 15.8682 9.30305L15.9553 9.08937C16.6681 7.34083 15.8654 5.3421 14.1412 4.57227L12.3666 3.82028C10.1947 3.01559 8.08442 3.86758 7.3197 5.88278Z" fill="url(#paint7_linear_20020_4346)"/>
<path d="M7.3197 5.88278L6.29626 8.77731L6.79483 9.73964C7.14061 10.4262 7.84374 10.8593 8.61246 10.8593H13.5531C14.5694 10.8593 15.4845 10.2441 15.8682 9.30305L15.9553 9.08937C16.6681 7.34083 15.8654 5.3421 14.1412 4.57227L12.3666 3.82028C10.1947 3.01559 8.08442 3.86758 7.3197 5.88278Z" fill="url(#paint8_radial_20020_4346)"/>
<path d="M7.3197 5.88278L6.29626 8.77731L6.79483 9.73964C7.14061 10.4262 7.84374 10.8593 8.61246 10.8593H13.5531C14.5694 10.8593 15.4845 10.2441 15.8682 9.30305L15.9553 9.08937C16.6681 7.34083 15.8654 5.3421 14.1412 4.57227L12.3666 3.82028C10.1947 3.01559 8.08442 3.86758 7.3197 5.88278Z" fill="url(#paint9_radial_20020_4346)"/>
<g filter="url(#filter1_f_20020_4346)">
<path d="M12.8698 19.2656L6.24475 27.9844H20.026L13.8966 19.2656H12.8698Z" fill="url(#paint10_linear_20020_4346)"/>
<path d="M12.8698 19.2656L6.24475 27.9844H20.026L13.8966 19.2656H12.8698Z" fill="url(#paint11_radial_20020_4346)"/>
<path d="M12.8698 19.2656L6.24475 27.9844H20.026L13.8966 19.2656H12.8698Z" fill="url(#paint12_radial_20020_4346)"/>
</g>
<g filter="url(#filter2_f_20020_4346)">
<path d="M11.4488 5.11133L13.8324 6.0957C14.234 6.24413 14.7413 6.77539 14.796 7.55664C14.8536 8.37855 14.2721 9.04057 13.9054 9.26758" stroke="url(#paint13_linear_20020_4346)" stroke-width="1.5" stroke-linecap="round"/>
</g>
<rect x="6.28064" y="7.74219" width="8.91406" height="4.07031" rx="2.03516" fill="url(#paint14_linear_20020_4346)"/>
<rect x="6.28064" y="7.74219" width="8.91406" height="4.07031" rx="2.03516" fill="url(#paint15_radial_20020_4346)"/>
<rect x="6.28064" y="7.74219" width="8.91406" height="4.07031" rx="2.03516" fill="url(#paint16_linear_20020_4346)"/>
<rect x="6.28064" y="7.74219" width="8.91406" height="4.07031" rx="2.03516" fill="url(#paint17_radial_20020_4346)"/>
<path d="M10.6531 5.85254L10.0004 7.77305L13.7507 7.77305L10.6531 5.85254Z" fill="url(#paint18_radial_20020_4346)"/>
<g filter="url(#filter3_f_20020_4346)">
<path d="M9.40564 5.67188L10.7963 6.71875V7.7795H8.88281L9.40564 5.67188Z" fill="url(#paint19_linear_20020_4346)"/>
</g>
<g filter="url(#filter4_f_20020_4346)">
<circle cx="24.0246" cy="19.9718" r="4.45772" fill="url(#paint20_radial_20020_4346)"/>
</g>
<g filter="url(#filter5_f_20020_4346)">
<path d="M8.51603 11.7373C8.01839 15.5065 6.31159 27.5963 6.3116 27.767L12.2497 19.2756L8.51603 11.7373Z" fill="url(#paint21_radial_20020_4346)"/>
</g>
<defs>
<filter id="filter0_i_20020_4346" x="2.0943" y="7.1875" width="28.8113" height="22.6562" filterUnits="userSpaceOnUse" color-interpolation-filters="sRGB">
<feFlood flood-opacity="0" result="BackgroundImageFix"/>
<feBlend mode="normal" in="SourceGraphic" in2="BackgroundImageFix" result="shape"/>
<feColorMatrix in="SourceAlpha" type="matrix" values="0 0 0 0 0 0 0 0 0 0 0 0 0 0 0 0 0 0 127 0" result="hardAlpha"/>
<feOffset dx="1" dy="-1.5"/>
<feGaussianBlur stdDeviation="1.5"/>
<feComposite in2="hardAlpha" operator="arithmetic" k2="-1" k3="1"/>
<feColorMatrix type="matrix" values="0 0 0 0 0.831373 0 0 0 0 0.619608 0 0 0 0 0.568627 0 0 0 1 0"/>
<feBlend mode="normal" in2="shape" result="effect1_innerShadow_20020_4346"/>
</filter>
<filter id="filter1_f_20020_4346" x="5.24475" y="18.2656" width="15.7812" height="10.7188" filterUnits="userSpaceOnUse" color-interpolation-filters="sRGB">
<feFlood flood-opacity="0" result="BackgroundImageFix"/>
<feBlend mode="normal" in="SourceGraphic" in2="BackgroundImageFix" result="shape"/>
<feGaussianBlur stdDeviation="0.5" result="effect1_foregroundBlur_20020_4346"/>
</filter>
<filter id="filter2_f_20020_4346" x="9.69861" y="3.36108" width="6.85138" height="7.65662" filterUnits="userSpaceOnUse" color-interpolation-filters="sRGB">
<feFlood flood-opacity="0" result="BackgroundImageFix"/>
<feBlend mode="normal" in="SourceGraphic" in2="BackgroundImageFix" result="shape"/>
<feGaussianBlur stdDeviation="0.5" result="effect1_foregroundBlur_20020_4346"/>
</filter>
<filter id="filter3_f_20020_4346" x="8.38281" y="5.17188" width="2.91345" height="3.10767" filterUnits="userSpaceOnUse" color-interpolation-filters="sRGB">
<feFlood flood-opacity="0" result="BackgroundImageFix"/>
<feBlend mode="normal" in="SourceGraphic" in2="BackgroundImageFix" result="shape"/>
<feGaussianBlur stdDeviation="0.25" result="effect1_foregroundBlur_20020_4346"/>
</filter>
<filter id="filter4_f_20020_4346" x="17.5669" y="13.514" width="12.9154" height="12.9154" filterUnits="userSpaceOnUse" color-interpolation-filters="sRGB">
<feFlood flood-opacity="0" result="BackgroundImageFix"/>
<feBlend mode="normal" in="SourceGraphic" in2="BackgroundImageFix" result="shape"/>
<feGaussianBlur stdDeviation="1" result="effect1_foregroundBlur_20020_4346"/>
</filter>
<filter id="filter5_f_20020_4346" x="4.81158" y="10.2373" width="8.93811" height="19.0297" filterUnits="userSpaceOnUse" color-interpolation-filters="sRGB">
<feFlood flood-opacity="0" result="BackgroundImageFix"/>
<feBlend mode="normal" in="SourceGraphic" in2="BackgroundImageFix" result="shape"/>
<feGaussianBlur stdDeviation="0.75" result="effect1_foregroundBlur_20020_4346"/>
</filter>
<radialGradient id="paint0_radial_20020_4346" cx="0" cy="0" r="1" gradientUnits="userSpaceOnUse" gradientTransform="translate(27.018 20.1872) rotate(155.964) scale(19.1812 18.4333)">
<stop stop-color="#FFDBBB"/>
<stop offset="1" stop-color="#ECB5A9"/>
</radialGradient>
<linearGradient id="paint1_linear_20020_4346" x1="16" y1="31.75" x2="16" y2="21.125" gradientUnits="userSpaceOnUse">
<stop stop-color="#B47997"/>
<stop offset="1" stop-color="#B47997" stop-opacity="0"/>
</linearGradient>
<radialGradient id="paint2_radial_20020_4346" cx="0" cy="0" r="1" gradientUnits="userSpaceOnUse" gradientTransform="translate(13.4681 17.4541) rotate(-90) scale(2.72446 1.45063)">
<stop stop-color="#D5997C"/>
<stop offset="1" stop-color="#D5997C" stop-opacity="0"/>
</radialGradient>
<radialGradient id="paint3_radial_20020_4346" cx="0" cy="0" r="1" gradientUnits="userSpaceOnUse" gradientTransform="translate(9.15515 11.4825) rotate(173.66) scale(1.74697 3.13176)">
<stop stop-color="#D49176"/>
<stop offset="1" stop-color="#D49176" stop-opacity="0"/>
</radialGradient>
<radialGradient id="paint4_radial_20020_4346" cx="0" cy="0" r="1" gradientUnits="userSpaceOnUse" gradientTransform="translate(17.6902 23.1871) rotate(165.675) scale(16.0964 23.7714)">
<stop offset="0.84569" stop-color="#ECB19B" stop-opacity="0"/>
<stop offset="1" stop-color="#ECB19B"/>
</radialGradient>
<radialGradient id="paint5_radial_20020_4346" cx="0" cy="0" r="1" gradientUnits="userSpaceOnUse" gradientTransform="translate(13.0937 10.9062) rotate(109.983) scale(10.2416 3.16316)">
<stop stop-color="#FFDBBD"/>
<stop offset="1" stop-color="#FFDBBD" stop-opacity="0"/>
</radialGradient>
<radialGradient id="paint6_radial_20020_4346" cx="0" cy="0" r="1" gradientUnits="userSpaceOnUse" gradientTransform="translate(28.875 28.875) rotate(-143.536) scale(24.7131 26.7219)">
<stop offset="0.470339" stop-color="#DC9E81" stop-opacity="0"/>
<stop offset="1" stop-color="#DC9E81"/>
</radialGradient>
<linearGradient id="paint7_linear_20020_4346" x1="8.40564" y1="9.62496" x2="17.3346" y2="7.1895" gradientUnits="userSpaceOnUse">
<stop stop-color="#E2AB9F"/>
<stop offset="1" stop-color="#FDC6AD"/>
</linearGradient>
<radialGradient id="paint8_radial_20020_4346" cx="0" cy="0" r="1" gradientUnits="userSpaceOnUse" gradientTransform="translate(10.0931 9.71871) rotate(-30.1963) scale(7.083 8.73249)">
<stop offset="0.789681" stop-color="#FFE2C4" stop-opacity="0"/>
<stop offset="1" stop-color="#FFE2C4"/>
</radialGradient>
<radialGradient id="paint9_radial_20020_4346" cx="0" cy="0" r="1" gradientUnits="userSpaceOnUse" gradientTransform="translate(11.464 8.39057) rotate(-122.735) scale(5.48766 7.79014)">
<stop offset="0.742479" stop-color="#C79B7A" stop-opacity="0"/>
<stop offset="1" stop-color="#C79B7A"/>
</radialGradient>
<linearGradient id="paint10_linear_20020_4346" x1="13.1354" y1="17.0508" x2="13.1198" y2="27.3438" gradientUnits="userSpaceOnUse">
<stop stop-color="#F7BFA1"/>
<stop offset="1" stop-color="#F7BFA1" stop-opacity="0"/>
</linearGradient>
<radialGradient id="paint11_radial_20020_4346" cx="0" cy="0" r="1" gradientUnits="userSpaceOnUse" gradientTransform="translate(10.4166 20.7344) rotate(33.9174) scale(2.18415 4.33652)">
<stop stop-color="#FFD9C0"/>
<stop offset="1" stop-color="#FFD9C0" stop-opacity="0"/>
</radialGradient>
<radialGradient id="paint12_radial_20020_4346" cx="0" cy="0" r="1" gradientUnits="userSpaceOnUse" gradientTransform="translate(16.6136 21.9633) rotate(143.906) scale(1.94536 8.27452)">
<stop offset="0.23109" stop-color="#D99877"/>
<stop offset="1" stop-color="#D99877" stop-opacity="0"/>
</radialGradient>
<linearGradient id="paint13_linear_20020_4346" x1="14.812" y1="7.56041" x2="11.0035" y2="5.88403" gradientUnits="userSpaceOnUse">
<stop stop-color="#FFE6CA"/>
<stop offset="1" stop-color="#FFE6CA" stop-opacity="0"/>
</linearGradient>
<linearGradient id="paint14_linear_20020_4346" x1="8.68689" y1="10.25" x2="14.4369" y2="10.25" gradientUnits="userSpaceOnUse">
<stop stop-color="#E2AB9F"/>
<stop offset="1" stop-color="#F9C6A8"/>
</linearGradient>
<radialGradient id="paint15_radial_20020_4346" cx="0" cy="0" r="1" gradientUnits="userSpaceOnUse" gradientTransform="translate(13.8431 9.53125) rotate(137.353) scale(1.61445 1.40902)">
<stop stop-color="#FFE4C9"/>
<stop offset="1" stop-color="#FFE4C9" stop-opacity="0"/>
</radialGradient>
<linearGradient id="paint16_linear_20020_4346" x1="10.7377" y1="12.0115" x2="10.7377" y2="9.77734" gradientUnits="userSpaceOnUse">
<stop stop-color="#DB9788"/>
<stop offset="1" stop-color="#DB9788" stop-opacity="0"/>
</linearGradient>
<radialGradient id="paint17_radial_20020_4346" cx="0" cy="0" r="1" gradientUnits="userSpaceOnUse" gradientTransform="translate(15.1947 9.77735) rotate(180) scale(8.91406 7.03626)">
<stop offset="0.90282" stop-color="#E9B098" stop-opacity="0"/>
<stop offset="1" stop-color="#E9B098"/>
</radialGradient>
<radialGradient id="paint18_radial_20020_4346" cx="0" cy="0" r="1" gradientUnits="userSpaceOnUse" gradientTransform="translate(11.4922 7.92456) rotate(-90) scale(1.21213 1.47114)">
<stop stop-color="#A76040"/>
<stop offset="1" stop-color="#D8916C" stop-opacity="0"/>
</radialGradient>
<linearGradient id="paint19_linear_20020_4346" x1="10.39" y1="6.75" x2="9.85631" y2="7.98068" gradientUnits="userSpaceOnUse">
<stop stop-color="#FFCDB6"/>
<stop offset="1" stop-color="#FFCDB6" stop-opacity="0"/>
</linearGradient>
<radialGradient id="paint20_radial_20020_4346" cx="0" cy="0" r="1" gradientUnits="userSpaceOnUse" gradientTransform="translate(27.8811 17.6584) rotate(144.36) scale(5.72588 9.69685)">
<stop stop-color="#FFE9CA"/>
<stop offset="1" stop-color="#FFE9CA" stop-opacity="0"/>
</radialGradient>
<radialGradient id="paint21_radial_20020_4346" cx="0" cy="0" r="1" gradientUnits="userSpaceOnUse" gradientTransform="translate(11.1475 21.6936) rotate(-102) scale(15.05 5.24944)">
<stop stop-color="#FFE2C3"/>
<stop offset="1" stop-color="#FFE2C3" stop-opacity="0"/>
</radialGradient>
</defs>
</svg>

<svg width="32" height="32" fill="none" xmlns="http://www.w3.org/2000/svg"><g filter="url(#a)"><path d="M7.968 8.688h-1.64l-3.75 11.187c-1.735 5.906 1.399 9.969 6.219 9.969h12.827a8.391 8.391 0 10-8.01-11.222.238.238 0 01-.223.16.234.234 0 01-.207-.126L7.968 8.688z" fill="url(#b)"/></g><path d="M7.968 8.688h-1.64l-3.75 11.187c-1.735 5.906 1.399 9.969 6.219 9.969h12.827a8.391 8.391 0 10-8.01-11.222.238.238 0 01-.223.16.234.234 0 01-.207-.126L7.968 8.688z" fill="url(#c)"/><path d="M7.968 8.688h-1.64l-3.75 11.187c-1.735 5.906 1.399 9.969 6.219 9.969h12.827a8.391 8.391 0 10-8.01-11.222.238.238 0 01-.223.16.234.234 0 01-.207-.126L7.968 8.688z" fill="url(#d)"/><path d="M7.968 8.688h-1.64l-3.75 11.187c-1.735 5.906 1.399 9.969 6.219 9.969h12.827a8.391 8.391 0 10-8.01-11.222.238.238 0 01-.223.16.234.234 0 01-.207-.126L7.968 8.688z" fill="url(#e)"/><path d="M7.968 8.688h-1.64l-3.75 11.187c-1.735 5.906 1.399 9.969 6.219 9.969h12.827a8.391 8.391 0 10-8.01-11.222.238.238 0 01-.223.16.234.234 0 01-.207-.126L7.968 8.688z" fill="url(#f)"/><path d="M7.968 8.688h-1.64l-3.75 11.187c-1.735 5.906 1.399 9.969 6.219 9.969h12.827a8.391 8.391 0 10-8.01-11.222.238.238 0 01-.223.16.234.234 0 01-.207-.126L7.968 8.688z" fill="url(#g)"/><path d="M19.901 29.844l-6.403-11.089a.241.241 0 00.116-.133 8.39 8.39 0 0116.292 2.83 8.391 8.391 0 01-8.282 8.392h-1.723z" fill="url(#h)"/><path d="M7.32 5.883L6.296 8.777l.499.963a2.035 2.035 0 001.817 1.12h4.941a2.5 2.5 0 002.315-1.557l.087-.214a3.5 3.5 0 00-1.814-4.517l-1.774-.752c-2.172-.804-4.283.048-5.047 2.063z" fill="url(#i)"/><path d="M7.32 5.883L6.296 8.777l.499.963a2.035 2.035 0 001.817 1.12h4.941a2.5 2.5 0 002.315-1.557l.087-.214a3.5 3.5 0 00-1.814-4.517l-1.774-.752c-2.172-.804-4.283.048-5.047 2.063z" fill="url(#j)"/><path d="M7.32 5.883L6.296 8.777l.499.963a2.035 2.035 0 001.817 1.12h4.941a2.5 2.5 0 002.315-1.557l.087-.214a3.5 3.5 0 00-1.814-4.517l-1.774-.752c-2.172-.804-4.283.048-5.047 2.063z" fill="url(#k)"/><g filter="url(#l)"><path d="M12.87 19.266l-6.625 8.718h13.781l-6.13-8.718H12.87z" fill="url(#m)"/><path d="M12.87 19.266l-6.625 8.718h13.781l-6.13-8.718H12.87z" fill="url(#n)"/><path d="M12.87 19.266l-6.625 8.718h13.781l-6.13-8.718H12.87z" fill="url(#o)"/></g><g filter="url(#p)"><path d="M11.449 5.111l2.383.985c.402.148.91.68.964 1.46.058.823-.524 1.485-.89 1.712" stroke="url(#q)" stroke-width="1.5" stroke-linecap="round"/></g><rect x="6.281" y="7.742" width="8.914" height="4.07" rx="2.035" fill="url(#r)"/><rect x="6.281" y="7.742" width="8.914" height="4.07" rx="2.035" fill="url(#s)"/><rect x="6.281" y="7.742" width="8.914" height="4.07" rx="2.035" fill="url(#t)"/><rect x="6.281" y="7.742" width="8.914" height="4.07" rx="2.035" fill="url(#u)"/><path d="M10.653 5.853L10 7.773h3.75l-3.097-1.92z" fill="url(#v)"/><g filter="url(#w)"><path d="M9.406 5.672l1.39 1.047v1.06H8.883l.523-2.107z" fill="url(#x)"/></g><g filter="url(#y)"><circle cx="24.025" cy="19.972" r="4.458" fill="url(#z)"/></g><g filter="url(#A)"><path d="M8.516 11.737c-.498 3.77-2.204 15.86-2.204 16.03l5.938-8.491-3.734-7.539z" fill="url(#B)"/></g><defs><radialGradient id="b" cx="0" cy="0" r="1" gradientUnits="userSpaceOnUse" gradientTransform="rotate(155.964 11.36 12.97) scale(19.1812 18.4333)"><stop stop-color="#FFDBBB"/><stop offset="1" stop-color="#ECB5A9"/></radialGradient><radialGradient id="d" cx="0" cy="0" r="1" gradientUnits="userSpaceOnUse" gradientTransform="matrix(0 -2.72446 1.45063 0 13.468 17.454)"><stop stop-color="#D5997C"/><stop offset="1" stop-color="#D5997C" stop-opacity="0"/></radialGradient><radialGradient id="e" cx="0" cy="0" r="1" gradientUnits="userSpaceOnUse" gradientTransform="rotate(173.66 4.26 5.995) scale(1.74697 3.13176)"><stop stop-color="#D49176"/><stop offset="1" stop-color="#D49176" stop-opacity="0"/></radialGradient><radialGradient id="f" cx="0" cy="0" r="1" gradientUnits="userSpaceOnUse" gradientTransform="rotate(165.675 7.388 12.705) scale(16.0964 23.7714)"><stop offset=".846" stop-color="#ECB19B" stop-opacity="0"/><stop offset="1" stop-color="#ECB19B"/></radialGradient><radialGradient id="g" cx="0" cy="0" r="1" gradientUnits="userSpaceOnUse" gradientTransform="rotate(109.983 2.727 10.039) scale(10.2416 3.16316)"><stop stop-color="#FFDBBD"/><stop offset="1" stop-color="#FFDBBD" stop-opacity="0"/></radialGradient><radialGradient id="h" cx="0" cy="0" r="1" gradientUnits="userSpaceOnUse" gradientTransform="rotate(-143.536 19.193 9.682) scale(24.7131 26.7219)"><stop offset=".47" stop-color="#DC9E81" stop-opacity="0"/><stop offset="1" stop-color="#DC9E81"/></radialGradient><radialGradient id="j" cx="0" cy="0" r="1" gradientUnits="userSpaceOnUse" gradientTransform="rotate(-30.196 23.058 -13.846) scale(7.083 8.73249)"><stop offset=".79" stop-color="#FFE2C4" stop-opacity="0"/><stop offset="1" stop-color="#FFE2C4"/></radialGradient><radialGradient id="k" cx="0" cy="0" r="1" gradientUnits="userSpaceOnUse" gradientTransform="rotate(-122.735 8.022 1.066) scale(5.48766 7.79014)"><stop offset=".742" stop-color="#C79B7A" stop-opacity="0"/><stop offset="1" stop-color="#C79B7A"/></radialGradient><radialGradient id="n" cx="0" cy="0" r="1" gradientUnits="userSpaceOnUse" gradientTransform="rotate(33.917 -28.789 27.447) scale(2.18415 4.33652)"><stop stop-color="#FFD9C0"/><stop offset="1" stop-color="#FFD9C0" stop-opacity="0"/></radialGradient><radialGradient id="o" cx="0" cy="0" r="1" gradientUnits="userSpaceOnUse" gradientTransform="rotate(143.906 4.729 13.688) scale(1.94536 8.27452)"><stop offset=".231" stop-color="#D99877"/><stop offset="1" stop-color="#D99877" stop-opacity="0"/></radialGradient><radialGradient id="s" cx="0" cy="0" r="1" gradientUnits="userSpaceOnUse" gradientTransform="rotate(137.353 5.061 7.467) scale(1.61445 1.40902)"><stop stop-color="#FFE4C9"/><stop offset="1" stop-color="#FFE4C9" stop-opacity="0"/></radialGradient><radialGradient id="u" cx="0" cy="0" r="1" gradientUnits="userSpaceOnUse" gradientTransform="matrix(-8.91406 0 0 -7.03626 15.195 9.777)"><stop offset=".903" stop-color="#E9B098" stop-opacity="0"/><stop offset="1" stop-color="#E9B098"/></radialGradient><radialGradient id="v" cx="0" cy="0" r="1" gradientUnits="userSpaceOnUse" gradientTransform="matrix(0 -1.21213 1.47114 0 11.492 7.925)"><stop stop-color="#A76040"/><stop offset="1" stop-color="#D8916C" stop-opacity="0"/></radialGradient><radialGradient id="z" cx="0" cy="0" r="1" gradientUnits="userSpaceOnUse" gradientTransform="rotate(144.36 11.102 13.31) scale(5.72588 9.69685)"><stop stop-color="#FFE9CA"/><stop offset="1" stop-color="#FFE9CA" stop-opacity="0"/></radialGradient><radialGradient id="B" cx="0" cy="0" r="1" gradientUnits="userSpaceOnUse" gradientTransform="rotate(-102 14.357 6.333) scale(15.05 5.24944)"><stop stop-color="#FFE2C3"/><stop offset="1" stop-color="#FFE2C3" stop-opacity="0"/></radialGradient><linearGradient id="c" x1="16" y1="31.75" x2="16" y2="21.125" gradientUnits="userSpaceOnUse"><stop stop-color="#B47997"/><stop offset="1" stop-color="#B47997" stop-opacity="0"/></linearGradient><linearGradient id="i" x1="8.406" y1="9.625" x2="17.335" y2="7.189" gradientUnits="userSpaceOnUse"><stop stop-color="#E2AB9F"/><stop offset="1" stop-color="#FDC6AD"/></linearGradient><linearGradient id="m" x1="13.135" y1="17.051" x2="13.12" y2="27.344" gradientUnits="userSpaceOnUse"><stop stop-color="#F7BFA1"/><stop offset="1" stop-color="#F7BFA1" stop-opacity="0"/></linearGradient><linearGradient id="q" x1="14.812" y1="7.56" x2="11.004" y2="5.884" gradientUnits="userSpaceOnUse"><stop stop-color="#FFE6CA"/><stop offset="1" stop-color="#FFE6CA" stop-opacity="0"/></linearGradient><linearGradient id="r" x1="8.687" y1="10.25" x2="14.437" y2="10.25" gradientUnits="userSpaceOnUse"><stop stop-color="#E2AB9F"/><stop offset="1" stop-color="#F9C6A8"/></linearGradient><linearGradient id="t" x1="10.738" y1="12.011" x2="10.738" y2="9.777" gradientUnits="userSpaceOnUse"><stop stop-color="#DB9788"/><stop offset="1" stop-color="#DB9788" stop-opacity="0"/></linearGradient><linearGradient id="x" x1="10.39" y1="6.75" x2="9.856" y2="7.981" gradientUnits="userSpaceOnUse"><stop stop-color="#FFCDB6"/><stop offset="1" stop-color="#FFCDB6" stop-opacity="0"/></linearGradient><filter id="a" x="2.094" y="7.188" width="28.811" height="22.656" filterUnits="userSpaceOnUse" color-interpolation-filters="sRGB"><feFlood flood-opacity="0" result="BackgroundImageFix"/><feBlend in="SourceGraphic" in2="BackgroundImageFix" result="shape"/><feColorMatrix in="SourceAlpha" values="0 0 0 0 0 0 0 0 0 0 0 0 0 0 0 0 0 0 127 0" result="hardAlpha"/><feOffset dx="1" dy="-1.5"/><feGaussianBlur stdDeviation="1.5"/><feComposite in2="hardAlpha" operator="arithmetic" k2="-1" k3="1"/><feColorMatrix values="0 0 0 0 0.831373 0 0 0 0 0.619608 0 0 0 0 0.568627 0 0 0 1 0"/><feBlend in2="shape" result="effect1_innerShadow_20020_4346"/></filter><filter id="l" x="5.245" y="18.266" width="15.781" height="10.719" filterUnits="userSpaceOnUse" color-interpolation-filters="sRGB"><feFlood flood-opacity="0" result="BackgroundImageFix"/><feBlend in="SourceGraphic" in2="BackgroundImageFix" result="shape"/><feGaussianBlur stdDeviation=".5" result="effect1_foregroundBlur_20020_4346"/></filter><filter id="p" x="9.699" y="3.361" width="6.851" height="7.657" filterUnits="userSpaceOnUse" color-interpolation-filters="sRGB"><feFlood flood-opacity="0" result="BackgroundImageFix"/><feBlend in="SourceGraphic" in2="BackgroundImageFix" result="shape"/><feGaussianBlur stdDeviation=".5" result="effect1_foregroundBlur_20020_4346"/></filter><filter id="w" x="8.383" y="5.172" width="2.913" height="3.108" filterUnits="userSpaceOnUse" color-interpolation-filters="sRGB"><feFlood flood-opacity="0" result="BackgroundImageFix"/><feBlend in="SourceGraphic" in2="BackgroundImageFix" result="shape"/><feGaussianBlur stdDeviation=".25" result="effect1_foregroundBlur_20020_4346"/></filter><filter id="y" x="17.567" y="13.514" width="12.915" height="12.915" filterUnits="userSpaceOnUse" color-interpolation-filters="sRGB"><feFlood flood-opacity="0" result="BackgroundImageFix"/><feBlend in="SourceGraphic" in2="BackgroundImageFix" result="shape"/><feGaussianBlur stdDeviation="1" result="effect1_foregroundBlur_20020_4346"/></filter><filter id="A" x="4.812" y="10.237" width="8.938" height="19.03" filterUnits="userSpaceOnUse" color-interpolation-filters="sRGB"><feFlood flood-opacity="0" result="BackgroundImageFix"/><feBlend in="SourceGraphic" in2="BackgroundImageFix" result="shape"/><feGaussianBlur stdDeviation=".75" result="effect1_foregroundBlur_20020_4346"/></filter></defs></svg>
